X:1 
T:Daddy Fox, Old
S:Mrs Julian, Cornwall
Z:Fred Hamer
B:Garners Gay, EDFS Publications, 1968
F:http://www.folkinfo.org/songs
M:4/4
L:1/8
K:G
G2 GG G2 D2 |B,2 D2 G2 GG |G2 GG G2 D2 |B,2 D2 G2 G2 |
w:Old Dad-dy Fox went out one night When the moon and the stars did shine so bright He 
A2 A2 cB AG |B2 BA GF ED |G2 GG B3/2B/ BG |E4 E2 B,B, |
w:went in-to_ the old farm-er's_ yard_ Where the ducks and the geese did quack so hard, hard, Where the 
C2 EE DD F3/2F/ |G8 |]
w:ducks and the geese did quack so hard. 
